X:1
T:Title
%%score { 1 | 2 }
L:1/8
M:4/4
K:G
V:1 treble nm="Grand Piano"
V:2 bass 
V:1
 z4 z2[Q:1/4=100] D>D | G2 G2 G2 G>A | B2 B>B B2 G2 | d3 d edBG |[M:9/8] c2 B- B A2- AD>D | %5
[M:4/4] G2 G2 G2 G>A | B2 B>B B2 G2 | d3 d edBG |[M:7/8] [GB]2 [FA]2 G3 |[M:1/4] B>c | %10
[M:4/4] d2 [Ad]2 [Gd]2 [DGB]>[CFA] | [B,G]2 [G,DG]>[CA] [G,EG]2 [G,CE]2 | %12
 [G,B,D]2 [G,B,DG]2 [DGB]4 |[M:9/8] [DGB]2 [DGd]- [DGd] [FA]2- [FA]B>c | %14
[M:4/4] d2 [Ad]2 [Gd]2 [GB]>[FA] | G2 [DA]2 [G,EG]2 [G,CE]2 | [G,B,D]2 [G,B,DG]2 [DGB]4 | %17
[M:7/8] [DGB]2 [CFA]2 [B,G]3 |] %18
V:2
 z4 z2 [G,B,]>[G,A,C] | [G,B,D]2 [G,CE]2 [G,B,D]2[K:treble] [G,B,D]>[G,CD] | %2
 [G,DG]2 [G,DG]>[G,DG] [G,DG]2 [G,B,D]2 | [G,B,G]3 [G,B,G] [G,CG][G,B,G][G,DG][K:bass][G,B,D] | %4
[M:9/8] [F,A,D]2 [G,D]- [G,D] [D,F,D]2- [D,F,D][G,B,]>[K:treble][G,A,C] | %5
[M:4/4] [G,B,D]2 [G,CE]2 [G,B,D]2 [G,B,D]>[G,CD] | [G,DG]2 [G,DG]>[G,DG] [G,DG]2 [G,B,D]2 | %7
 [G,B,G]3 [G,B,G] [G,CG][G,B,G][G,DG][K:bass][G,B,] |[M:7/8] [D,D]2 [D,C]2 [G,B,]3 | %9
[M:1/4][K:treble] [G,G]>[G,A,G] |[M:4/4] [G,B,G]2[K:bass] [F,C]2 [G,B,]2 D,>D, | %11
 E,2 B,,>[B,,G,] C,2 C,2 | G,,2 G,,2 G,4 | %13
[M:9/8] G,2 B,,- B,, [D,D]2- [D,D][K:treble][G,G]>[G,A,G] | %14
[M:4/4] [G,B,G]2[K:bass] [F,C]2 [G,B,]2 [D,D]>[D,C] | [E,B,]2 [B,,G,]2 C,2 C,2 | G,,2 G,,2 G,4 | %17
[M:7/8] D,2 D,2 G,,3 |] %18

